images_breeze_svg/cmd/32/managexmlsource.svg

<svg viewBox="0 0 32 32" xmlns="http://www.w3.org/2000/svg"><path d="m6 4v24h12 1 6 1v-1-15-1l-7-7h-1zm1 1h11v7h7v15h-6-1-11zm9.925781 7.992188-2.947265 11h1.039062l2.982422-10.992188zm-4.511719 2-2.960937 3.144531-.3242188.347656.3242188.345703 2.943359 3.16211.714844-.69336-2.621094-2.814453 2.638672-2.796875zm7.464844.283203-.714844.695312 2.638672 2.796875-2.621093 2.8125.714843.695313 2.94336-3.16211.324218-.345703-.324218-.347656z" fill="#4d4d4d"/></svg>

<?xml version="1.0" encoding="UTF-8" standalone="no"?>
<svg
   xmlns:dc="http://purl.org/dc/elements/1.1/"
   xmlns:cc="http://creativecommons.org/ns#"
   xmlns:rdf="http://www.w3.org/1999/02/22-rdf-syntax-ns#"
   xmlns:svg="http://www.w3.org/2000/svg"
   xmlns="http://www.w3.org/2000/svg"
   xmlns:sodipodi="http://sodipodi.sourceforge.net/DTD/sodipodi-0.dtd"
   xmlns:inkscape="http://www.inkscape.org/namespaces/inkscape"
   viewBox="0 0 32 32"
   version="1.1"
   id="svg4"
   sodipodi:docname="managexmlsource.svg"
   inkscape:version="0.92.4 (unknown)"
   inkscape:export-filename="/home/rizmut/Dokumen/Rizmut/Github/libreoffice-style-breeze/images_breeze/cmd/32/managexmlsource.png"
   inkscape:export-xdpi="96"
   inkscape:export-ydpi="96">
  <metadata
     id="metadata10">
    <rdf:RDF>
      <cc:Work
         rdf:about="">
        <dc:format>image/svg+xml</dc:format>
        <dc:type
           rdf:resource="http://purl.org/dc/dcmitype/StillImage" />
        <dc:title></dc:title>
      </cc:Work>
    </rdf:RDF>
  </metadata>
  <defs
     id="defs8">
    <linearGradient
       id="b"
       y1="17"
       y2="24"
       x1="47"
       x2="54"
       gradientUnits="userSpaceOnUse"
       gradientTransform="translate(-27,-8)">
      <stop
         stop-color="#060606"
         id="stop7" />
      <stop
         offset="1"
         stop-opacity="0"
         id="stop9" />
    </linearGradient>
  </defs>
  <sodipodi:namedview
     pagecolor="#ffffff"
     bordercolor="#666666"
     borderopacity="1"
     objecttolerance="10"
     gridtolerance="10"
     guidetolerance="10"
     inkscape:pageopacity="0"
     inkscape:pageshadow="2"
     inkscape:window-width="1360"
     inkscape:window-height="714"
     id="namedview6"
     showgrid="true"
     inkscape:zoom="20.85965"
     inkscape:cx="7.3171329"
     inkscape:cy="11.543657"
     inkscape:window-x="0"
     inkscape:window-y="28"
     inkscape:window-maximized="1"
     inkscape:current-layer="svg4">
    <inkscape:grid
       type="xygrid"
       id="grid817" />
  </sodipodi:namedview>
  <path
     style="fill:#4d4d4d;opacity:1;fill-opacity:1"
     d="M 6 4 L 6 28 L 18 28 L 19 28 L 25 28 L 26 28 L 26 27 L 26 12 L 26 11 L 19 4 L 18 4 L 6 4 z M 7 5 L 18 5 L 18 12 L 25 12 L 25 27 L 19 27 L 18 27 L 7 27 L 7 5 z M 16.925781 12.992188 L 13.978516 23.992188 L 15.017578 23.992188 L 18 13 L 16.925781 12.992188 z M 12.414062 14.992188 L 9.453125 18.136719 L 9.1289062 18.484375 L 9.453125 18.830078 L 12.396484 21.992188 L 13.111328 21.298828 L 10.490234 18.484375 L 13.128906 15.6875 L 12.414062 14.992188 z M 19.878906 15.275391 L 19.164062 15.970703 L 21.802734 18.767578 L 19.181641 21.580078 L 19.896484 22.275391 L 22.839844 19.113281 L 23.164062 18.767578 L 22.839844 18.419922 L 19.878906 15.275391 z "
     id="path2" />
</svg>
